X:1
T:Title
%%score { 1 | 2 }
L:1/8
M:3/4
K:Bb
V:1 treble nm="Grand Piano"
V:2 bass 
V:1
 z2 z2[Q:1/4=66] [DF]2 | [DF]3 [DG] [DG][DB] | [EB]>[EA] A2 G2 | F3 G FG | %4
[M:2/4] [DF]>[CE] [B,D]2 |[M:1/4] [DF]2 |[M:3/4] [DF]3 [DG] [DG][DFB] | [GB]>[FA] [FA]2 [Fc]2 | %8
 [=Ec]3 [EB] DE |[M:5/8] A>G F3 |[M:1/8] F |[M:3/4] c>=B c3 d | F>G F3 F | [Fd]3 [Fd] [=Ed][EG] | %14
[M:5/8] [=Ec][Ed] c3 |[M:1/8] F |[M:3/4] [Fd]>[=E_d] [F=d]3 [DB] | [_Ac][AB] [GB]3 [GB] | %18
[M:13/16] [FA]GFdc3/2B |[M:2/4] [DB]4 |] %20
V:2
 z2 z2 [B,,B,]2 | [B,,B,]3 [B,,B,] [B,,B,][B,,B,] | [C,F,]>[C,F,] [F,CE]2 [F,B,E]2 | %3
 [F,A,E]3 [F,A,E] [F,A,E][F,A,E] |[M:2/4] [B,,B,]>[B,,F,] [B,,F,]2 |[M:1/4] [B,,B,]2 | %6
[M:3/4] [B,,B,]3 [B,,B,] [B,,B,]B,, | [C,C]>[C,C] [C,C]2 [C,A,]2 | [C,G,]3 [C,G,] [C,B,C][C,B,C] | %9
[M:5/8] [C,B,C]>[C,B,C] [F,A,C]3 |[M:1/8] [F,A,] |[M:3/4] [F,A,E]>[F,_A,D] [F,=A,E]3 [F,A,E] | %12
 [B,D]>[B,_D] [B,=D]3 [B,D] | [B,,B,]3 [B,,B,] [C,B,][C,B,] |[M:5/8] [C,B,][C,B,] [F,A,E]3 | %15
[M:1/8] [F,A,] |[M:3/4] [B,,B,]>[B,,B,] [B,,B,]3 [B,,B,] | [D,B,][D,B,] [E,E]3 [E,E] | %18
[M:13/16] [E,E][E,B,E][F,B,D][F,B,F][F,A,E]3/2[F,E] |[M:2/4] [B,,F,]4 |] %20

